packages/admin/admin-icons/icons/chevron-right.svg

<svg xmlns="http://www.w3.org/2000/svg" width="16" height="16" viewBox="0 0 16 16"><path fill="#242424" fill-rule="evenodd" d="M5.16874623,3.16271845 C5.36874177,2.96986695 5.67919179,2.94843901 5.90373277,3.09843462 L5.98352512,3.16271845 L11,8 L5.98352512,12.8372815 C5.75853015,13.0542395 5.39374121,13.0542395 5.16874623,12.8372815 C4.9687507,12.64443 4.94652897,12.3450696 5.10208105,12.1285494 L5.16874623,12.0516073 L9.37056526,8 L5.16874623,3.94839266 C4.9687507,3.75554115 4.94652897,3.45618071 5.10208105,3.23966055 L5.16874623,3.16271845 Z"/></svg>

<svg width="16" height="16" fill="none" viewBox="0 0 16 16">
  <path fill="#242424" fill-rule="evenodd" d="M5.169 3.163c.2-.193.51-.215.735-.065l.08.065L11 8l-5.016 4.837a.591.591 0 0 1-.815 0 .541.541 0 0 1-.067-.708l.067-.077L9.37 8 5.169 3.948a.541.541 0 0 1-.067-.708l.067-.077Z" clip-rule="evenodd"/>
</svg>
